assets/images/smiley.svg

<?xml version="1.0" encoding="UTF-8"?>
<svg width="16px" height="16px" viewBox="0 0 16 16" version="1.1" xmlns="http://www.w3.org/2000/svg" xmlns:xlink="http://www.w3.org/1999/xlink">
    <!-- Generator: Sketch 40.3 (33839) - http://www.bohemiancoding.com/sketch -->
    <title>smiley</title>
    <desc>Created with Sketch.</desc>
    <defs></defs>
    <g id="Octicons" stroke="none" stroke-width="1" fill="none" fill-rule="evenodd">
        <g id="smiley" fill="#000000">
            <path d="M8,0 C3.58,0 0,3.58 0,8 C0,12.42 3.58,16 8,16 C12.42,16 16,12.42 16,8 C16,3.58 12.42,0 8,0 L8,0 Z M12.81,12.81 C12.18,13.44 11.45,13.92 10.64,14.26 C9.81,14.62 8.92,14.79 8,14.79 C7.08,14.79 6.19,14.62 5.36,14.26 C4.55,13.92 3.81,13.43 3.19,12.81 C2.57,12.19 2.08,11.45 1.74,10.64 C1.38,9.81 1.21,8.92 1.21,8 C1.21,7.08 1.38,6.19 1.74,5.36 C2.08,4.55 2.57,3.81 3.19,3.19 C3.81,2.57 4.55,2.08 5.36,1.74 C6.19,1.38 7.08,1.21 8,1.21 C8.92,1.21 9.81,1.38 10.64,1.74 C11.45,2.08 12.19,2.57 12.81,3.19 C13.43,3.81 13.92,4.55 14.26,5.36 C14.62,6.19 14.79,7.08 14.79,8 C14.79,8.92 14.62,9.81 14.26,10.64 C13.92,11.45 13.43,12.19 12.81,12.81 L12.81,12.81 Z M4,6.8 L4,6.21 C4,5.55 4.53,5.02 5.2,5.02 L5.79,5.02 C6.45,5.02 6.98,5.55 6.98,6.21 L6.98,6.8 C6.98,7.47 6.45,8 5.79,8 L5.2,8 C4.53,8 4,7.47 4,6.8 L4,6.8 Z M9,6.8 L9,6.21 C9,5.55 9.53,5.02 10.2,5.02 L10.79,5.02 C11.45,5.02 11.98,5.55 11.98,6.21 L11.98,6.8 C11.98,7.47 11.45,8 10.79,8 L10.2,8 C9.53,8 9,7.47 9,6.8 L9,6.8 Z M13,10 C12.28,11.88 10.09,13 8,13 C5.91,13 3.72,11.87 3,10 C2.86,9.61 3.23,9 3.66,9 L12.25,9 C12.66,9 13.14,9.61 13,10 L13,10 Z" id="Shape"></path>
        </g>
    </g>
</svg>

<?xml version="1.0" encoding="utf-8"?>
<!-- Generator: Adobe Illustrator 20.1.0, SVG Export Plug-In . SVG Version: 6.00 Build 0)  -->
<svg version="1.1" id="Layer_1" xmlns="http://www.w3.org/2000/svg" xmlns:xlink="http://www.w3.org/1999/xlink" x="0px" y="0px"
	 viewBox="0 0 16 16" style="enable-background:new 0 0 16 16;" xml:space="preserve">
<style type="text/css">
	.st0{fill:#FFFFFF;}
</style>
<title>smiley</title>
<desc>Created with Sketch.</desc>
<g id="Octicons">
	<g id="smiley">
		<path id="Shape" class="st0" d="M8,0C3.6,0,0,3.6,0,8s3.6,8,8,8s8-3.6,8-8S12.4,0,8,0L8,0z M12.8,12.8c-0.6,0.6-1.4,1.1-2.2,1.4
			c-0.8,0.4-1.7,0.5-2.6,0.5s-1.8-0.2-2.6-0.5c-0.8-0.3-1.6-0.8-2.2-1.4c-0.6-0.6-1.1-1.4-1.5-2.2C1.4,9.8,1.2,8.9,1.2,8
			s0.2-1.8,0.5-2.6c0.3-0.8,0.8-1.6,1.5-2.2s1.4-1.1,2.2-1.5C6.2,1.4,7.1,1.2,8,1.2s1.8,0.2,2.6,0.5c0.8,0.3,1.5,0.8,2.2,1.5
			c0.6,0.6,1.1,1.4,1.4,2.2c0.4,0.8,0.5,1.7,0.5,2.6s-0.2,1.8-0.5,2.6C13.9,11.4,13.4,12.2,12.8,12.8L12.8,12.8z M4,6.8V6.2
			C4,5.6,4.5,5,5.2,5h0.6C6.4,5,7,5.6,7,6.2v0.6C7,7.5,6.4,8,5.8,8H5.2C4.5,8,4,7.5,4,6.8L4,6.8z M9,6.8V6.2C9,5.6,9.5,5,10.2,5h0.6
			C11.4,5,12,5.6,12,6.2v0.6C12,7.5,11.4,8,10.8,8h-0.6C9.5,8,9,7.5,9,6.8L9,6.8z M13,10c-0.7,1.9-2.9,3-5,3s-4.3-1.1-5-3
			C2.9,9.6,3.2,9,3.7,9h8.6C12.7,9,13.1,9.6,13,10L13,10z"/>
	</g>
</g>
</svg>
